X:5041
T: Most jöttem gyuláról
M:4/4
L:1/4
K: F
BBcF | G2 G/z/ z |
gf f<c | d2 d/z/ z |
f<g af | g/g/d/d/ c f/z/|
B<B c F | G2 G/z/ z |

